X:1
T: John Carey's Daughter
C:
R:Reel
Q: 232
K:D
M:4/4
L:1/8
|:AG|Fd ((3dcd) fd ((3dcd) |fd cd B2 AG|Fd ((3dcd) fd ((3dcd) |BG FG E2 AG|
Fd ((3dcd) fd ((3dcd) |fd cd B2 AG|Fd cB AF GE|F2 D2 D2:|
|:d2|fd ((3dcd) Bc de|fd cd B2 A2|BA Bc dc de|fd cd B2 Bc|
df ed ce cA|Bd BG FA FD|ED CD EF GA|F2 D2 D2:|
